X: 0
T: Pastor Pastorum
Z: F. Silcher, 1789-1860
Z: Public Domain
Z: Sequenced By Douglas D. Anderson
L: 1/4
M: 4/4
V: P1 name="Staff"
%%MIDI program 1 -1
K: D
[V: P1]  A3/ B/ A G | F2 E2 | D E/ F/ G F | F4 | F A B A | d2 c B | A (G/ F/) G A | A4|]

